;FLAVOR:Marlin
;TIME:1632
;Filament used: 0.6483m
;Layer height: 0.2
;MINX:81.701
;MINY:92.908
;MINZ:0.2
;MAXX:153.173
;MAXY:142.058
;MAXZ:4.2
;TARGET_MACHINE.NAME:Creality Ender-3
;Generated with Cura_SteamEngine 5.10.0
M140 S50
M105
M190 S50
M104 S200
M105
M109 S200
; Ender 3 Custom Start G-code
G92 E0 ; Reset Extruder
G28 ; Home all axes
G1 Z2.0 F3000 ; Move Z Axis up little to prevent scratching of Heat Bed
G1 X0.1 Y20 Z0.3 F5000.0 ; Move to start position
G1 X0.1 Y200.0 Z0.3 F1500.0 E15 ; Draw the first line
G1 X0.4 Y200.0 Z0.3 F5000.0 ; Move to side a little
G1 X0.4 Y20 Z0.3 F1500.0 E30 ; Draw the second line
G92 E0 ; Reset Extruder
G1 Z2.0 F3000 ; Move Z Axis up little to prevent scratching of Heat Bed
G1 X5 Y20 Z0.3 F5000.0 ; Move over to prevent blob squish
M82 ;absolute extrusion mode
G92 E0
G92 E0
G1 F2700 E-5
;LAYER_COUNT:21
;LAYER:0
M107
G0 F6000 X86.63 Y100.031 Z0.2
;TYPE:SKIRT
G1 F2700 E0
G1 F1200 X87.351 Y99.487 E0.03004
G1 X87.857 Y99.156 E0.05015
G1 X90.08 Y97.793 E0.13688
G1 X92.95 Y95.928 E0.25072
G1 X93.791 Y95.437 E0.28311
G1 X94.644 Y95.034 E0.31449
G1 X95.826 Y94.614 E0.35621
G1 X96.377 Y94.454 E0.37529
G1 X97.322 Y94.227 E0.40762
G1 X98.215 Y94.092 E0.43766
G1 X99.389 Y94.028 E0.47676
G1 X100.645 Y94.026 E0.51854
G1 X103.264 Y93.985 E0.60566
G1 X105.793 Y93.874 E0.68985
G1 X108.263 Y93.695 E0.77222
G1 X110.861 Y93.437 E0.85905
G1 X112.066 Y93.388 E0.89917
G1 X114.983 Y93.43 E0.9962
G1 X117.505 Y93.391 E1.08009
G1 X120.002 Y93.282 E1.16322
G1 X122.595 Y93.096 E1.24968
G1 X124.141 Y92.952 E1.30133
G1 X125.043 Y92.908 E1.33136
G1 X125.605 Y92.918 E1.35006
G1 X129.143 Y93.073 E1.46784
G1 X131.632 Y93.107 E1.55064
G1 X134.155 Y93.069 E1.63456
G1 X136.333 Y92.983 E1.70706
G1 X137.476 Y92.922 E1.74513
G1 X138.38 Y92.914 E1.7752
G1 X139.123 Y92.951 E1.79994
G1 X139.613 Y92.992 E1.81629
G1 X140.579 Y93.117 E1.84869
G1 X141.529 Y93.327 E1.88105
G1 X142.448 Y93.616 E1.91309
G1 X143.082 Y93.869 E1.9358
G1 X145.831 Y95.07 E2.03557
G1 X146.67 Y95.483 E2.06668
G1 X147.362 Y95.893 E2.09343
G1 X147.7 Y96.112 E2.10683
G1 X148.604 Y96.765 E2.14392
G1 X148.875 Y96.982 E2.15546
G1 X149.58 Y97.603 E2.18671
G1 X150.275 Y98.335 E2.22028
G1 X150.88 Y99.097 E2.25264
G1 X151.378 Y99.85 E2.28267
G1 X151.874 Y100.77 E2.31743
G1 X152.258 Y101.666 E2.34986
G1 X152.559 Y102.587 E2.38208
G1 X152.758 Y103.42 E2.41057
G1 X152.886 Y104.072 E2.43267
G1 X153.025 Y104.978 E2.46316
G1 X153.111 Y105.77 E2.48965
G1 X153.173 Y106.743 E2.52208
G1 X153.15 Y107.681 E2.55329
G1 X153.04 Y108.666 E2.58625
G1 X152.673 Y110.99 E2.66451
G1 X152.344 Y113.5 E2.7487
G1 X152.089 Y115.994 E2.83209
G1 X151.904 Y118.495 E2.9155
G1 X151.789 Y121.062 E3.00096
G1 X151.745 Y123.569 E3.08436
G1 X151.748 Y125.254 E3.1404
G1 X151.704 Y126.229 E3.17286
G1 X151.585 Y127.124 E3.20289
G1 X151.44 Y127.826 E3.22673
G1 X151.322 Y128.31 E3.2433
G1 X151.054 Y129.23 E3.27518
G1 X150.613 Y130.337 E3.31481
G1 X150.344 Y130.914 E3.33598
G1 X149.912 Y131.743 E3.36707
G1 X149.367 Y132.614 E3.40125
G1 X148.796 Y133.418 E3.43405
G1 X147.956 Y134.376 E3.47642
G1 X146.896 Y135.448 E3.52657
G1 X146.277 Y136.049 E3.55526
G1 X145.531 Y136.704 E3.58828
G1 X144.744 Y137.28 E3.62072
G1 X143.915 Y137.782 E3.65295
G1 X143.262 Y138.138 E3.67769
G1 X142.416 Y138.55 E3.70899
G1 X141.368 Y138.945 E3.74624
G1 X140.632 Y139.173 E3.77186
G1 X137.284 Y140.125 E3.88763
G1 X136.805 Y140.246 E3.90406
G1 X135.764 Y140.484 E3.93958
G1 X135.009 Y140.637 E3.9652
G1 X134.155 Y140.774 E3.99397
G1 X133.189 Y140.869 E4.02626
G1 X132.29 Y140.882 E4.05616
G1 X131.718 Y140.866 E4.07519
G1 X129.122 Y140.829 E4.16154
G1 X126.63 Y140.865 E4.24444
G1 X124.058 Y140.975 E4.33006
G1 X121.504 Y141.157 E4.41522
G1 X120.686 Y141.225 E4.44252
G1 X119.485 Y141.258 E4.48248
G1 X118.772 Y141.238 E4.50621
G1 X116.189 Y141.202 E4.59213
G1 X113.69 Y141.239 E4.67525
G1 X111.121 Y141.349 E4.76078
G1 X108.585 Y141.53 E4.84534
G1 X107.29 Y141.639 E4.88856
G1 X106.248 Y141.675 E4.92324
G1 X103.742 Y141.642 E5.0066
G1 X101.237 Y141.678 E5.08992
G1 X98.677 Y141.787 E5.17515
G1 X96.256 Y141.958 E5.25587
G1 X95.45 Y142.024 E5.28277
G1 X94.507 Y142.058 E5.31415
G1 X93.274 Y141.982 E5.35524
G1 X92.977 Y141.947 E5.36518
G1 X92.086 Y141.801 E5.39521
G1 X91.074 Y141.54 E5.42998
G1 X90.156 Y141.213 E5.46239
G1 X89.303 Y140.822 E5.4936
G1 X88.427 Y140.322 E5.52714
G1 X87.656 Y139.787 E5.55836
G1 X86.882 Y139.141 E5.59189
G1 X86.216 Y138.477 E5.62317
G1 X85.559 Y137.689 E5.65729
G1 X84.794 Y136.544 E5.70309
G1 X84.286 Y135.656 E5.73712
G1 X83.741 Y134.643 E5.77538
G1 X83.502 Y134.169 E5.79303
G1 X83.212 Y133.557 E5.81556
G1 X82.897 Y132.824 E5.84209
G1 X82.657 Y132.199 E5.86436
G1 X82.354 Y131.337 E5.89475
G1 X82.134 Y130.609 E5.92005
G1 X81.904 Y129.637 E5.95327
G1 X81.773 Y128.744 E5.98329
G1 X81.722 Y128.088 E6.00517
G1 X81.701 Y127.605 E6.02125
G1 X81.703 Y126.618 E6.05408
G1 X81.774 Y125.779 E6.08208
G1 X81.95 Y124.356 E6.12977
G1 X82.226 Y121.757 E6.2167
G1 X82.417 Y119.293 E6.2989
G1 X82.563 Y116.18 E6.40256
G1 X82.618 Y113.596 E6.48852
G1 X82.599 Y111.039 E6.57357
G1 X82.543 Y109.071 E6.63905
G1 X82.561 Y108.097 E6.67145
G1 X82.667 Y107.121 E6.7041
G1 X82.904 Y105.982 E6.7428
G1 X82.988 Y105.667 E6.75364
G1 X83.259 Y104.806 E6.78366
G1 X83.66 Y103.841 E6.81842
G1 X84.114 Y102.978 E6.85085
G1 X84.643 Y102.161 E6.88323
G1 X85.242 Y101.393 E6.91562
G1 X85.906 Y100.681 E6.948
G1 X86.63 Y100.031 E6.98036
G0 F6000 X86.871 Y100.35
G1 F1200 X87.592 Y99.806 E7.0104
G1 X88.066 Y99.497 E7.02922
G1 X90.289 Y98.134 E7.11595
G1 X93.152 Y96.273 E7.22952
G1 X93.962 Y95.799 E7.26074
G1 X94.815 Y95.396 E7.29212
G1 X95.938 Y94.998 E7.33174
G1 X96.471 Y94.843 E7.35021
G1 X97.382 Y94.623 E7.38138
G1 X98.275 Y94.488 E7.41142
G1 X99.39 Y94.428 E7.44855
G1 X100.651 Y94.426 E7.4905
G1 X103.282 Y94.385 E7.57801
G1 X105.811 Y94.274 E7.66221
G1 X108.296 Y94.094 E7.74508
G1 X110.878 Y93.837 E7.83138
G1 X112.06 Y93.788 E7.87073
G1 X114.983 Y93.83 E7.96796
G1 X117.522 Y93.791 E8.05241
G1 X120.019 Y93.682 E8.13554
G1 X122.624 Y93.495 E8.22241
G1 X124.16 Y93.352 E8.27372
G1 X125.062 Y93.308 E8.30375
G1 X125.587 Y93.318 E8.32122
G1 X129.125 Y93.473 E8.43901
G1 X131.633 Y93.507 E8.52243
G1 X134.171 Y93.469 E8.60685
G1 X136.349 Y93.382 E8.67935
G1 X137.48 Y93.322 E8.71702
G1 X138.36 Y93.314 E8.74629
G1 X139.09 Y93.35 E8.7706
G1 X139.562 Y93.389 E8.78635
G1 X140.493 Y93.508 E8.81757
G1 X141.409 Y93.709 E8.84876
G1 X142.3 Y93.988 E8.87982
G1 X142.922 Y94.236 E8.90209
G1 X145.654 Y95.429 E9.00124
G1 X146.493 Y95.842 E9.03234
G1 X147.144 Y96.229 E9.05753
G1 X147.482 Y96.448 E9.07093
G1 X148.354 Y97.077 E9.10669
G1 X148.611 Y97.283 E9.11764
G1 X149.29 Y97.879 E9.14769
G1 X149.962 Y98.584 E9.18009
G1 X150.546 Y99.318 E9.21128
G1 X151.044 Y100.071 E9.24131
G1 X151.507 Y100.928 E9.27371
G1 X151.878 Y101.791 E9.30495
G1 X152.17 Y102.68 E9.33607
G1 X152.365 Y103.497 E9.36401
G1 X152.493 Y104.149 E9.38611
G1 X152.627 Y105.022 E9.41549
G1 X152.712 Y105.796 E9.44139
G1 X152.773 Y106.733 E9.47262
G1 X152.75 Y107.671 E9.50382
G1 X152.645 Y108.604 E9.53505
G1 X152.276 Y110.938 E9.61364
G1 X151.947 Y113.448 E9.69784
G1 X151.691 Y115.953 E9.78159
G1 X151.505 Y118.465 E9.86537
G1 X151.389 Y121.044 E9.95123
G1 X151.345 Y123.562 E10.035
G1 X151.348 Y125.237 E10.09071
G1 X151.307 Y126.176 E10.12197
G1 X151.188 Y127.071 E10.152
G1 X151.051 Y127.731 E10.17442
G1 X150.933 Y128.215 E10.19099
G1 X150.682 Y129.082 E10.22101
G1 X150.25 Y130.168 E10.25988
G1 X149.989 Y130.729 E10.28046
G1 X149.557 Y131.558 E10.31155
G1 X149.041 Y132.383 E10.34392
G1 X148.495 Y133.154 E10.37534
G1 X147.655 Y134.112 E10.41772
G1 X146.617 Y135.161 E10.4668
G1 X145.998 Y135.762 E10.4955
G1 X145.294 Y136.382 E10.5267
G1 X144.537 Y136.938 E10.55794
G1 X143.724 Y137.431 E10.58956
G1 X143.087 Y137.778 E10.61369
G1 X142.241 Y138.19 E10.64498
G1 X141.25 Y138.563 E10.6802
G1 X140.524 Y138.788 E10.70548
G1 X139.218 Y139.156 E10.75061
G1 X138.365 Y139.407 E10.78019
G1 X137.186 Y139.737 E10.82091
G1 X136.716 Y139.856 E10.83703
G1 X135.685 Y140.092 E10.87221
G1 X134.945 Y140.242 E10.89732
G1 X134.115 Y140.376 E10.92529
G1 X133.183 Y140.469 E10.95644
G1 X132.301 Y140.482 E10.98578
G1 X131.729 Y140.466 E11.00481
G1 X129.122 Y140.429 E11.09153
G1 X126.613 Y140.465 E11.17499
G1 X124.041 Y140.575 E11.26061
G1 X121.47 Y140.758 E11.34634
G1 X120.675 Y140.825 E11.37287
G1 X119.496 Y140.858 E11.4121
G1 X118.783 Y140.838 E11.43583
G1 X116.189 Y140.802 E11.52211
G1 X113.673 Y140.839 E11.6058
G1 X111.104 Y140.949 E11.69133
G1 X108.551 Y141.131 E11.77645
G1 X107.276 Y141.239 E11.81901
G1 X106.253 Y141.275 E11.85306
G1 X103.741 Y141.242 E11.93662
G1 X101.22 Y141.278 E12.02047
G1 X98.66 Y141.387 E12.1057
G1 X96.223 Y141.559 E12.18695
G1 X95.436 Y141.624 E12.21322
G1 X94.493 Y141.658 E12.2446
G1 X93.321 Y141.585 E12.28366
G1 X93.042 Y141.552 E12.293
G1 X92.151 Y141.406 E12.32303
G1 X91.208 Y141.163 E12.35542
G1 X90.323 Y140.849 E12.38665
G1 X89.47 Y140.458 E12.41786
G1 X88.655 Y139.993 E12.44907
G1 X87.884 Y139.458 E12.48029
G1 X87.164 Y138.857 E12.51148
G1 X86.523 Y138.22 E12.54154
G1 X85.892 Y137.467 E12.57421
G1 X85.127 Y136.322 E12.62001
G1 X84.638 Y135.466 E12.6528
G1 X84.098 Y134.463 E12.69069
G1 X83.863 Y133.998 E12.70802
G1 X83.579 Y133.399 E12.73007
G1 X83.27 Y132.68 E12.7561
G1 X83.034 Y132.067 E12.77794
G1 X82.737 Y131.221 E12.80776
G1 X82.517 Y130.493 E12.83306
G1 X82.3 Y129.579 E12.8643
G1 X82.169 Y128.686 E12.89432
G1 X82.122 Y128.07 E12.91487
G1 X82.101 Y127.605 E12.93035
G1 X82.102 Y126.651 E12.96208
G1 X82.171 Y125.828 E12.98955
G1 X82.347 Y124.405 E13.03724
G1 X82.624 Y121.799 E13.12441
G1 X82.816 Y119.324 E13.20697
G1 X82.963 Y116.199 E13.31102
G1 X83.018 Y113.604 E13.39735
G1 X82.999 Y111.036 E13.48277
G1 X82.943 Y109.078 E13.54792
G1 X82.959 Y108.139 E13.57915
G1 X83.059 Y107.202 E13.6105
G1 X83.296 Y106.063 E13.64919
G1 X83.37 Y105.787 E13.65869
G1 X83.641 Y104.926 E13.68872
G1 X84.014 Y104.027 E13.72109
G1 X84.45 Y103.195 E13.75233
G1 X84.959 Y102.406 E13.78356
G1 X85.535 Y101.665 E13.81478
G1 X86.174 Y100.978 E13.84598
G1 X86.871 Y100.35 E13.87719
G0 F6000 X87.112 Y100.669
G1 F1200 X87.833 Y100.125 E13.90723
G1 X88.275 Y99.838 E13.92476
G1 X90.498 Y98.475 E14.01148
G1 X93.355 Y96.618 E14.12482
G1 X94.134 Y96.16 E14.15487
G1 X94.949 Y95.773 E14.18488
G1 X96.072 Y95.375 E14.22451
G1 X96.565 Y95.232 E14.24158
G1 X97.442 Y95.019 E14.2716
G1 X98.335 Y94.884 E14.30164
G1 X99.391 Y94.828 E14.33681
G1 X100.657 Y94.826 E14.37892
G1 X103.3 Y94.785 E14.46683
G1 X105.829 Y94.674 E14.55103
G1 X108.329 Y94.493 E14.6344
G1 X110.895 Y94.237 E14.72017
G1 X112.054 Y94.188 E14.75875
G1 X114.983 Y94.23 E14.85618
G1 X117.539 Y94.191 E14.9412
G1 X120.036 Y94.082 E15.02433
G1 X122.653 Y93.894 E15.1116
G1 X124.179 Y93.752 E15.16257
G1 X125.081 Y93.708 E15.19261
G1 X125.569 Y93.718 E15.20884
G1 X129.107 Y93.873 E15.32663
G1 X131.634 Y93.907 E15.41069
G1 X134.187 Y93.869 E15.49561
G1 X136.365 Y93.781 E15.56811
G1 X137.484 Y93.722 E15.60538
G1 X138.364 Y93.714 E15.63465
G1 X139.058 Y93.749 E15.65776
G1 X139.512 Y93.786 E15.67291
G1 X140.408 Y93.899 E15.70295
G1 X141.29 Y94.091 E15.73297
G1 X142.152 Y94.36 E15.763
G1 X142.762 Y94.603 E15.78484
G1 X145.478 Y95.788 E15.8834
G1 X146.289 Y96.186 E15.91345
G1 X146.927 Y96.565 E15.93813
G1 X147.248 Y96.772 E15.95083
G1 X148.104 Y97.389 E15.98593
G1 X148.347 Y97.584 E15.99629
G1 X149.026 Y98.18 E16.02634
G1 X149.649 Y98.833 E16.05636
G1 X150.212 Y99.539 E16.08639
G1 X150.71 Y100.292 E16.11642
G1 X151.14 Y101.087 E16.14648
G1 X151.498 Y101.916 E16.17652
G1 X151.781 Y102.773 E16.20653
G1 X151.972 Y103.574 E16.23392
G1 X152.1 Y104.226 E16.25602
G1 X152.229 Y105.066 E16.28429
G1 X152.313 Y105.823 E16.30962
G1 X152.373 Y106.724 E16.33965
G1 X152.352 Y107.627 E16.36969
G1 X152.25 Y108.541 E16.40028
G1 X151.879 Y110.886 E16.47925
G1 X151.55 Y113.396 E16.56345
G1 X151.293 Y115.912 E16.64756
G1 X151.106 Y118.435 E16.73171
G1 X150.989 Y121.026 E16.81797
G1 X150.945 Y123.555 E16.9021
G1 X150.948 Y125.22 E16.95748
G1 X150.91 Y126.123 E16.98754
G1 X150.791 Y127.018 E17.01757
G1 X150.662 Y127.637 E17.0386
G1 X150.549 Y128.104 E17.05458
G1 X150.298 Y128.971 E17.0846
G1 X149.887 Y130 E17.12146
G1 X149.634 Y130.545 E17.14144
G1 X149.218 Y131.346 E17.17146
G1 X148.714 Y132.153 E17.20311
G1 X148.194 Y132.891 E17.23313
G1 X147.371 Y133.831 E17.27469
G1 X146.338 Y134.874 E17.32351
G1 X145.733 Y135.462 E17.35157
G1 X145.057 Y136.06 E17.38159
G1 X144.33 Y136.596 E17.41163
G1 X143.532 Y137.08 E17.44267
G1 X142.911 Y137.419 E17.46621
G1 X142.1 Y137.816 E17.49624
G1 X141.132 Y138.181 E17.53065
G1 X140.416 Y138.403 E17.55558
G1 X139.105 Y138.772 E17.60088
G1 X138.257 Y139.022 E17.63028
G1 X137.087 Y139.349 E17.67069
G1 X136.627 Y139.466 E17.68648
G1 X135.605 Y139.7 E17.72135
G1 X134.881 Y139.847 E17.74592
G1 X134.075 Y139.978 E17.77308
G1 X133.177 Y140.069 E17.8031
G1 X132.312 Y140.082 E17.83187
G1 X131.74 Y140.066 E17.8509
G1 X129.122 Y140.029 E17.93799
G1 X126.596 Y140.065 E18.02201
G1 X124.024 Y140.175 E18.10763
G1 X121.436 Y140.359 E18.19393
G1 X120.664 Y140.425 E18.2197
G1 X119.507 Y140.458 E18.2582
G1 X118.794 Y140.438 E18.28192
G1 X116.189 Y140.402 E18.36857
G1 X113.656 Y140.439 E18.45283
G1 X111.087 Y140.549 E18.53835
G1 X108.517 Y140.732 E18.62405
G1 X107.262 Y140.839 E18.66594
G1 X106.258 Y140.875 E18.69935
G1 X103.74 Y140.842 E18.78311
G1 X101.203 Y140.878 E18.8675
G1 X98.643 Y140.987 E18.95272
G1 X96.19 Y141.16 E19.03451
G1 X95.42 Y141.224 E19.06021
G1 X94.518 Y141.259 E19.09024
G1 X93.368 Y141.188 E19.12856
G1 X93.107 Y141.157 E19.1373
G1 X92.216 Y141.011 E19.16733
G1 X91.341 Y140.786 E19.19738
G1 X90.489 Y140.485 E19.22743
G1 X89.668 Y140.11 E19.25745
G1 X88.883 Y139.664 E19.28748
G1 X88.14 Y139.15 E19.31753
G1 X87.446 Y138.573 E19.34755
G1 X86.805 Y137.936 E19.37761
G1 X86.224 Y137.245 E19.40763
G1 X85.474 Y136.124 E19.45249
G1 X84.99 Y135.276 E19.48497
G1 X84.455 Y134.282 E19.52251
G1 X84.224 Y133.826 E19.53952
G1 X83.946 Y133.241 E19.56106
G1 X83.643 Y132.536 E19.58658
G1 X83.411 Y131.935 E19.60801
G1 X83.12 Y131.105 E19.63726
G1 X82.906 Y130.4 E19.66177
G1 X82.696 Y129.521 E19.69182
G1 X82.565 Y128.628 E19.72184
G1 X82.522 Y128.052 E19.74105
G1 X82.501 Y127.587 E19.75654
G1 X82.501 Y126.684 E19.78657
G1 X82.568 Y125.877 E19.8135
G1 X82.744 Y124.454 E19.86119
G1 X83.022 Y121.841 E19.94859
G1 X83.215 Y119.355 E20.03153
G1 X83.363 Y116.218 E20.13598
G1 X83.418 Y113.612 E20.22267
G1 X83.399 Y111.033 E20.30845
G1 X83.343 Y109.084 E20.3733
G1 X83.357 Y108.181 E20.40334
G1 X83.451 Y107.283 E20.43337
G1 X83.683 Y106.166 E20.47132
G1 X83.752 Y105.907 E20.48023
G1 X84.023 Y105.046 E20.51025
G1 X84.369 Y104.212 E20.54029
G1 X84.787 Y103.411 E20.57034
G1 X85.275 Y102.651 E20.60038
G1 X85.828 Y101.937 E20.63041
G1 X86.442 Y101.275 E20.66044
G1 X87.112 Y100.669 E20.69049
G1 F2700 E15.69049
;MESH:CE3V3SE_Rocas.stl
G0 F6000 X93.524 Y108.045
G0 X96.135 Y111.793
;TYPE:WALL-INNER
G1 F2700 E20.69049
G1 F1200 X97.243 Y111.503 E20.72859
G1 X97.907 Y111.206 E20.75278
G1 X97.994 Y110.942 E20.76202
G1 X98.135 Y110.781 E20.76914
G1 F1191.1 X98.438 Y110.634 E20.78043
G1 F1170.7 X98.773 Y110.704 E20.79209
G1 F1156.6 X98.953 Y110.779 E20.79882
G1 X99.355 Y110.63 E20.81362
G1 X99.085 Y110.475 E20.82436
G1 X98.984 Y110.303 E20.83124
G1 X98.852 Y110.304 E20.8358
G1 F1159.4 X98.574 Y110.25 E20.84555
G1 F1182.3 X98.262 Y110.076 E20.85761
G1 F1200 X97.972 Y109.72 E20.87288
G1 X97.908 Y109.587 E20.87779
G1 X97.848 Y109.151 E20.89243
G1 F1086 X97.905 Y108.843 E20.90394
